X: 26
T: No_124_Song_of_Thanks_for_the_Gift_of_a_Pony.krn
%%abc-version 2.0
%%abcx-abcm2ps-target-version 5.9.1 (29 Sep 2008)
%%abc-creator hum2abc beta
%%abcx-conversion-date 2020/08/10 18:54:57
%%gracespace 0 6 6
%%humdrum-veritas 2902453916
%%humdrum-veritas-data 2512205
%%linebreak <none>
%%barnumbers 0
L: 1/8
M: 2/4
%%staves {1 2}
V: 1 clef=bass
V: 2 clef=bass
K: Gb
[V:1] [K:clef=bass][M:2/4](3EEF (3FFG | 
[V:2] [K:clef=bass][M:2/4]G,,G,, G,,G,, | 
[V:1] E2(3EEE | 
[V:2] G,,G,, G,,G,, | 
[V:1] E>EE2 | 
[V:2] z4 | 
[V:1] (3EEF (3FFG | 
[V:2] z4 | 
[V:1] E2(3EEE | 
[V:2] z4 | 
[V:1] E>EE2 ||  
[V:2] z4 ||  
[V:1] [M:3/4](3EEE D>B, B,/A,3/ | 
[V:2] [M:3/4]z6 | 
[V:1] B,A, G,>E,E,2 | 
[V:2] z6 | 
[V:1] G,2E,<E, E,3/D,/ ||  
[V:2] z6 ||  
[V:1] [M:2/4]E,2E,2- ||  
[V:2] [M:2/4]z4 ||  
[V:1] [M:3/4]E,6 | 
[V:2] [M:3/4]z6 | 
[V:1] (3EEE E>EE2 | 
[V:2] z6 | 
[V:1] (3EEE D>B, B,/A,3/ | 
[V:2] z6 | 
[V:1] B,A, G,>E,E,2 | 
[V:2] z6 | 
[V:1] G,2E,<E, E,3/D,/ ||  
[V:2] z6 ||  
[V:1] [M:2/4]E,2E,2- | 
[V:2] [M:2/4]z4 | 
[V:1] E,4 |]  
[V:2] z4 |]  


